X: 9
T:Green Willis
M:4/4
L:1/8
K:D
(3ABc |: dAdA dAfe | dAdA dAgf | edcB ABcd | edcB A2 (3ABc | dAdA dAfe |
 dAdA dAgf | edcA BAcA | [1 d2 d4 ABc :| [2 d2 d4 fg :|]
agfg agfe | d2 dc d2 ef | gfga bagf | edcB A2 fg | agfg agfe | dAdA gegf
 | edcA BAcA | [1 d2 d4 fg :| [2 d2 d4 |]
